X:434
T:Treue Liebe
C:anon.
O:Germany
Z:Transcribed by Frank Nordberg - http://www.musicaviva.com
F:http://abc.musicaviva.com/tunes/germany/treue-liebe.abc
M:2/4
Q:200
K:G
B2GE|DGG2|A2^GA|(3(BG)ED2|
w:Ach! wie ist m\"og- lich dann, Da\ss ich dich las-[ext] sen kann?
D2^CD|EcB2|A2BA|D4|
w:Hab' ich von Her- zen lieb, Das glau- be mir.
A2BA|GED2|B2cB|EBA2|
w:Du hast die See- le mein, So ganz ge- nom- men ein,
D2ED|DcB2|A2EF|G4|]
w:Da\ss ich kein' and- re lieb', Als dich al- lein!
W:
W:Ach! wie ist m\"oglich dann, Da\ss ich dich las sen kann?
W:Hab' ich von Herzen lieb, Das glaube mir.
W:Du hast die Seele mein, So ganz genommen ein,
W:Da\ss ich kein' andre lieb', Als dich allein!
W:
W:Blau ist ein Bl\"umelein, Das hei\sst Vergissnichtmein;
W:Dies Bl\"umlein leg' an's Herz, Und denke mein!
W:Stirbt Blum' und Hoffnung gleich, Wir sind and Liebe reich
W:'Denn die stirbt nie bei mir. Das glaube mir!
W:
W:W\"ar' ich ein Vogelein, Bald wollt' ich bei dir sein,
W:Scheut' Falk und Habicht nicht, Flog schnell zu dir.
W:Scha\ss mich ein J\"ager tot, Fiel ich in deinen Scho\ss;
W:S\"ah'st du mig traurig an. Gern st\"urb' ich dann.
W:
W:
W:  From Musica Viva - http://www.musicaviva.com
W:  the Internet center for free sheet music downloads.

